X:17110
T:The Plough Boy Reel
R:reel
M:2/4
L:1/8
K:D
a/g/|fa df|B_B Ad|c/d/e/f/ ga|f/a/g/f/ ea/g/|
fa df|B_B Ad|c/d/e/f/ gc|df d:|
K:A
a|gg g/e/f/g/|aa a>a|gg g/e/f/g/|aa a>a|
gg g/e/f/g/|ae fd|cB eG|A3:|
